brandFactory_export/1.Light/Alerta_1Light.svg

<?xml version="1.0" encoding="UTF-8"?>
<svg width="24px" height="24px" viewBox="0 0 24 24" version="1.1" xmlns="http://www.w3.org/2000/svg" xmlns:xlink="http://www.w3.org/1999/xlink">
    <title>1.Light/Alerta_1Light</title>
    <g id="Symbols" stroke="none" stroke-width="1" fill="none" fill-rule="evenodd">
        <g id="1.Light/Alerta_1Light" fill="#5CB615" fill-rule="nonzero">
            <path d="M11.8184874,0.0201680672 C12,0.0201680672 12.1613445,0.131092437 12.2588235,0.322689076 L23.5394958,22.8537815 C23.6302521,23.0352941 23.6268908,23.2268908 23.5327731,23.3815126 C23.4420168,23.5361345 23.2705882,23.6235294 23.0655462,23.6235294 L0.574789916,23.6235294 C0.369747899,23.6235294 0.201680672,23.5361345 0.104201681,23.3815126 C0.0100840336,23.2268908 0.00672268907,23.0352941 0.0974789916,22.8537815 L11.3815126,0.322689076 C11.4756303,0.131092437 11.6369748,0.0201680672 11.8184874,0.0201680672 Z M11.8218487,0.884033613 L0.756302521,22.9781513 L22.8806723,22.9781513 L11.8218487,0.884033613 Z M11.8218487,19.6638655 C12.0504202,19.6638655 12.1848739,19.7983193 12.1848739,20.0268908 C12.1848739,20.2554622 12.0537815,20.389916 11.8218487,20.389916 C11.589916,20.389916 11.4588235,20.2554622 11.4588235,20.0268908 C11.4588235,19.7983193 11.5932773,19.6638655 11.8218487,19.6638655 Z M11.8453782,7.22689076 C12.0302521,7.22689076 12.1815126,7.37815126 12.1815126,7.56302521 L12.1815126,17.405042 C12.1815126,17.589916 12.0336134,17.7411765 11.8453782,17.7411765 C11.6605042,17.7411765 11.5092437,17.589916 11.5092437,17.405042 L11.5092437,7.56302521 C11.5092437,7.37815126 11.6605042,7.22689076 11.8453782,7.22689076 Z" id="Alerta_1Light"></path>
        </g>
    </g>
</svg>

<svg width="24" height="24" viewBox="0 0 24 24" xmlns="http://www.w3.org/2000/svg"><path d="M11.818.02c.182 0 .343.111.44.303l11.281 22.53a.536.536 0 01-.006.529c-.091.154-.262.242-.467.242H.575a.534.534 0 01-.47-.242.536.536 0 01-.008-.528L11.382.323c.094-.192.255-.303.436-.303zm.004.864L.756 22.978h22.125L11.82.884zm0 18.78c.228 0 .363.134.363.363 0 .228-.131.363-.363.363-.232 0-.363-.135-.363-.363 0-.229.134-.363.363-.363zm.023-12.437c.185 0 .337.151.337.336v9.842a.335.335 0 01-.337.336.337.337 0 01-.336-.336V7.563c0-.185.152-.336.336-.336z" fill="#5CB615" fill-rule="nonzero"/></svg>
